front/public/static/landing/logos/gray/gitguardian-1.svg

<svg fill="none" height="300" viewBox="0 0 600 300" width="600" xmlns="http://www.w3.org/2000/svg" xmlns:xlink="http://www.w3.org/1999/xlink"><clipPath id="a"><path d="m105.141 102.96h388.86v94.8116h-388.86z"/></clipPath><g clip-path="url(#a)" fill="#364153"><path d="m128.101 103.93c-8.627 1.164-14.997 3.105-16.922 5.11-3.716 3.816-6.038 19.469-6.038 40.231 0 21.539 2.123 36.803 5.706 41.007 2.124 2.394 7.101 4.205 15.661 5.628 8.627 1.487 42.602 1.681 51.627.323 11.48-1.682 16.789-3.751 18.514-7.18 3.251-6.209 4.91-19.986 4.844-40.166-.066-16.299-1.128-27.101-3.451-34.41-1.99-6.274-3.583-7.373-14.267-9.702-5.176-1.164-8.892-1.358-27.538-1.552-15.993-.13-23.292.064-28.136.711zm23.49 42.948v28.977l-1.526 2.199c-2.19 3.234-5.242 4.463-10.883 4.463h-4.844v-28.46c0-31.24 0-31.24 3.915-34.474 1.991-1.617 2.655-1.747 7.764-1.747h5.574zm23.624-11.837c.266.971.266 4.463.066 7.762-.597 10.026-3.45 12.742-12.873 12.419l-5.176-.194-.199-6.145c-.332-11.513 3.052-15.394 13.603-15.523 3.915 0 4.181.064 4.579 1.681zm-4.579 27.166c3.186 2.329 4.247 4.851 4.645 11.125.2 3.169.2 6.598-.066 7.568l-.464 1.746-5.774-.259c-6.702-.258-8.626-1.229-10.75-5.433-1.061-2.07-1.327-3.881-1.327-9.055 0-3.622.199-6.727.531-6.985.265-.259 2.92-.389 5.906-.259 4.247.129 5.839.517 7.299 1.552z"/><path d="m224.919 116.737c-1.593 1.552-2.323 2.975-2.655 5.045-.199 1.552-.332 16.493-.199 33.246l.199 30.399h5.442c5.308 0 5.574-.064 7.631-2.134l2.19-2.07.199-7.762c.132-4.268.464-7.761.663-7.761.266 0 1.327.517 2.323 1.164 1.327.776 3.185 3.557 5.972 8.861 5.11 9.638 5.707 10.026 15.594 10.026 4.778 0 6.769-.194 6.769-.776 0-.389-3.119-6.21-6.968-12.872s-6.967-12.354-6.967-12.677c0-.259 3.185-6.015 6.967-12.807 3.849-6.727 6.968-12.677 6.968-13.195 0-.646-1.46-.776-7.432-.582-9.821.324-10.153.518-15.13 10.284-3.65 7.115-5.707 9.638-7.764 9.638-.663 0-.863-4.01-.863-19.081v-19.081h-5.375c-5.176 0-5.441.065-7.564 2.135z"/><path d="m381.255 115.637c-3.318 2.329-3.384 2.976-3.384 37.774v32.34h4.512c3.119 0 5.243-.388 6.968-1.229 2.389-1.164 2.721-1.164 4.977-.259 3.849 1.617 12.741 1.423 17.718-.453 4.777-1.811 10.551-7.115 12.94-11.966 1.526-2.975 1.659-3.945 1.659-12.936v-9.702l-2.257-4.074c-5.109-9.185-15.66-14.295-25.813-12.419-1.991.323-3.915.647-4.247.647-.265 0-.597-4.14-.664-9.25l-.199-9.184-5.308-.194c-4.115-.13-5.641.064-6.902.905zm26.278 33.246c3.185 1.876 4.181 4.334 4.181 10.155 0 7.826-2.92 11.189-9.688 11.189-2.721 0-3.385-.323-5.641-2.522l-2.588-2.523v-6.274-6.274l2.588-2.522c2.256-2.264 2.92-2.523 5.773-2.523 2.057 0 4.048.453 5.375 1.294z"/><path d="m435.408 115.314c-2.124 1.229-3.119 4.204-3.119 9.314v4.851h5.641c5.242 0 5.773-.13 7.763-1.876 2.058-1.811 2.124-2.005 2.19-7.244v-5.433l-5.64-.13c-3.119-.129-6.172.13-6.835.518z"/><path d="m288.69 132.713c-9.821 1.682-17.784 9.702-19.775 19.986-.929 4.981-.266 13.195 1.526 17.852 1.991 5.304 8.029 11.19 13.537 13.259 3.65 1.423 5.176 1.553 17.784 1.811l13.736.259v-4.657c0-5.368-1.061-7.891-4.18-9.702-1.858-1.099-3.384-1.294-11.281-1.294-9.357 0-11.679-.517-13.67-2.845-.796-.906.398-1.035 12.276-1.035 11.746 0 13.405-.13 15.263-1.229 3.981-2.393 5.176-7.827 3.318-14.812-1.327-4.722-3.783-8.538-7.698-11.966-5.375-4.722-13.404-6.921-20.836-5.627zm11.347 17.658c1.194 1.293 2.19 2.652 2.19 3.04s-3.318.646-8.959.646c-4.91 0-8.958-.194-8.958-.517 0-1.035 2.19-3.493 4.247-4.722 1.593-1.035 2.92-1.229 5.64-1.035 3.119.194 3.916.583 5.84 2.588z"/><path d="m342.705 132.972c-7.631 1.617-13.537 6.209-16.988 13.065-1.858 3.687-1.924 4.14-1.924 12.871 0 8.474.133 9.314 1.792 12.742 5.972 12.419 20.903 17.335 33.71 11.061 5.242-2.523 8.626-5.886 11.214-11.19 1.593-3.299 1.726-4.204 1.726-12.613 0-8.473-.133-9.314-1.792-12.742-3.318-6.92-10.153-11.965-18.116-13.388-4.579-.841-4.91-.841-9.622.194zm9.888 15.782c3.317 1.746 4.711 4.721 4.711 10.025 0 7.632-3.119 11.448-9.29 11.448-3.783 0-7.101-1.94-8.361-4.851-1.261-3.04-1.195-10.219.199-13.065 2.123-4.398 7.963-6.015 12.741-3.557z"/><path d="m432.949 155.416c0 22.508.067 23.608 1.327 25.678 1.792 2.846 6.304 4.786 10.485 4.527l3.119-.194.199-22.314c.133-22.056.133-22.38-1.327-25.226-1.858-3.557-4.446-5.045-9.689-5.562l-4.114-.453z"/><path d="m453.522 137.564c0 5.11.133 5.627 1.925 7.567l1.924 2.135 8.693.194 8.693.259-8.096 8.732c-13.869 14.876-13.139 13.841-13.139 19.21 0 9.702.996 10.09 23.425 10.09h17.054v-5.563c0-8.796-.796-9.508-12.343-9.961l-8.029-.323 10.153-10.996 10.153-10.995.066-5.692c0-3.169-.266-6.209-.664-6.856-1.526-2.781-4.977-3.299-22.893-3.299h-16.922z"/></g></svg>

<svg width="600" height="300" viewBox="0 0 600 300" fill="none" xmlns="http://www.w3.org/2000/svg">
<g clip-path="url(#clip0_1904_3965)">
<path d="M128.101 103.93C119.474 105.094 113.104 107.035 111.179 109.04C107.463 112.856 105.141 128.509 105.141 149.271C105.141 170.81 107.264 186.074 110.847 190.278C112.971 192.672 117.948 194.483 126.508 195.906C135.135 197.393 169.11 197.587 178.135 196.229C189.615 194.547 194.924 192.478 196.649 189.049C199.9 182.84 201.559 169.063 201.493 148.883C201.427 132.584 200.365 121.782 198.042 114.473C196.052 108.199 194.459 107.1 183.775 104.771C178.599 103.607 174.883 103.413 156.237 103.219C140.244 103.089 132.945 103.283 128.101 103.93ZM151.591 146.878V175.855L150.065 178.054C147.875 181.288 144.823 182.517 139.182 182.517H134.338V154.057C134.338 122.817 134.338 122.817 138.253 119.583C140.244 117.966 140.908 117.836 146.017 117.836H151.591V146.878ZM175.215 135.041C175.481 136.012 175.481 139.504 175.281 142.803C174.684 152.829 171.831 155.545 162.408 155.222L157.232 155.028L157.033 148.883C156.701 137.37 160.085 133.489 170.636 133.36C174.551 133.36 174.817 133.424 175.215 135.041ZM170.636 162.207C173.822 164.536 174.883 167.058 175.281 173.332C175.481 176.501 175.481 179.93 175.215 180.9L174.751 182.646L168.977 182.387C162.275 182.129 160.351 181.158 158.227 176.954C157.166 174.884 156.9 173.073 156.9 167.899C156.9 164.277 157.099 161.172 157.431 160.914C157.696 160.655 160.351 160.525 163.337 160.655C167.584 160.784 169.176 161.172 170.636 162.207Z" fill="#364153"/>
<path d="M224.919 116.737C223.326 118.289 222.596 119.712 222.264 121.782C222.065 123.334 221.932 138.275 222.065 155.028L222.264 185.427H227.706C233.014 185.427 233.28 185.363 235.337 183.293L237.527 181.223L237.726 173.461C237.858 169.193 238.19 165.7 238.389 165.7C238.655 165.7 239.716 166.217 240.712 166.864C242.039 167.64 243.897 170.421 246.684 175.725C251.794 185.363 252.391 185.751 262.278 185.751C267.056 185.751 269.047 185.557 269.047 184.975C269.047 184.586 265.928 178.765 262.079 172.103C258.23 165.441 255.112 159.749 255.112 159.426C255.112 159.167 258.297 153.411 262.079 146.619C265.928 139.892 269.047 133.942 269.047 133.424C269.047 132.778 267.587 132.648 261.615 132.842C251.794 133.166 251.462 133.36 246.485 143.126C242.835 150.241 240.778 152.764 238.721 152.764C238.058 152.764 237.858 148.754 237.858 133.683V114.602H232.483C227.307 114.602 227.042 114.667 224.919 116.737Z" fill="#364153"/>
<path d="M381.255 115.637C377.937 117.966 377.871 118.613 377.871 153.411V185.751H382.383C385.502 185.751 387.626 185.363 389.351 184.522C391.74 183.358 392.072 183.358 394.328 184.263C398.177 185.88 407.069 185.686 412.046 183.81C416.823 181.999 422.597 176.695 424.986 171.844C426.512 168.869 426.645 167.899 426.645 158.908V149.206L424.388 145.132C419.279 135.947 408.728 130.837 398.575 132.713C396.584 133.036 394.66 133.36 394.328 133.36C394.063 133.36 393.731 129.22 393.664 124.11L393.465 114.926L388.157 114.732C384.042 114.602 382.516 114.796 381.255 115.637ZM407.533 148.883C410.718 150.759 411.714 153.217 411.714 159.038C411.714 166.864 408.794 170.227 402.026 170.227C399.305 170.227 398.641 169.904 396.385 167.705L393.797 165.182V158.908V152.634L396.385 150.112C398.641 147.848 399.305 147.589 402.158 147.589C404.215 147.589 406.206 148.042 407.533 148.883Z" fill="#364153"/>
<path d="M435.408 115.314C433.284 116.543 432.289 119.518 432.289 124.628V129.479H437.93C443.172 129.479 443.703 129.349 445.693 127.603C447.751 125.792 447.817 125.598 447.883 120.359V114.926L442.243 114.796C439.124 114.667 436.071 114.926 435.408 115.314Z" fill="#364153"/>
<path d="M288.69 132.713C278.869 134.395 270.906 142.415 268.915 152.699C267.986 157.68 268.649 165.894 270.441 170.551C272.432 175.855 278.47 181.741 283.978 183.81C287.628 185.233 289.154 185.363 301.762 185.621L315.498 185.88V181.223C315.498 175.855 314.437 173.332 311.318 171.521C309.46 170.422 307.934 170.227 300.037 170.227C290.68 170.227 288.358 169.71 286.367 167.382C285.571 166.476 286.765 166.347 298.643 166.347C310.389 166.347 312.048 166.217 313.906 165.118C317.887 162.725 319.082 157.291 317.224 150.306C315.897 145.584 313.441 141.768 309.526 138.34C304.151 133.618 296.122 131.419 288.69 132.713ZM300.037 150.371C301.231 151.664 302.227 153.023 302.227 153.411C302.227 153.799 298.909 154.057 293.268 154.057C288.358 154.057 284.31 153.863 284.31 153.54C284.31 152.505 286.5 150.047 288.557 148.818C290.15 147.783 291.477 147.589 294.197 147.783C297.316 147.977 298.113 148.366 300.037 150.371Z" fill="#364153"/>
<path d="M342.705 132.972C335.074 134.589 329.168 139.181 325.717 146.037C323.859 149.724 323.793 150.177 323.793 158.908C323.793 167.382 323.926 168.222 325.585 171.65C331.557 184.069 346.488 188.985 359.295 182.711C364.537 180.188 367.921 176.825 370.509 171.521C372.102 168.222 372.235 167.317 372.235 158.908C372.235 150.435 372.102 149.594 370.443 146.166C367.125 139.246 360.29 134.201 352.327 132.778C347.748 131.937 347.417 131.937 342.705 132.972ZM352.593 148.754C355.91 150.5 357.304 153.475 357.304 158.779C357.304 166.411 354.185 170.227 348.014 170.227C344.231 170.227 340.913 168.287 339.653 165.376C338.392 162.336 338.458 155.157 339.852 152.311C341.975 147.913 347.815 146.296 352.593 148.754Z" fill="#364153"/>
<path d="M432.949 155.416C432.949 177.924 433.016 179.024 434.276 181.094C436.068 183.94 440.58 185.88 444.761 185.621L447.88 185.427L448.079 163.113C448.212 141.057 448.212 140.733 446.752 137.887C444.894 134.33 442.306 132.842 437.063 132.325L432.949 131.872V155.416Z" fill="#364153"/>
<path d="M453.522 137.564C453.522 142.674 453.655 143.191 455.447 145.131L457.371 147.266L466.064 147.46L474.757 147.719L466.661 156.451C452.792 171.327 453.522 170.292 453.522 175.661C453.522 185.363 454.518 185.751 476.947 185.751H494.001V180.188C494.001 171.392 493.205 170.68 481.658 170.227L473.629 169.904L483.782 158.908L493.935 147.913L494.001 142.221C494.001 139.052 493.735 136.012 493.337 135.365C491.811 132.584 488.36 132.066 470.444 132.066H453.522V137.564Z" fill="#364153"/>
</g>
<defs>
<clipPath id="clip0_1904_3965">
<rect width="388.86" height="94.8116" fill="white" transform="translate(105.141 102.96)"/>
</clipPath>
</defs>
</svg>
